X:170
T:Sweet Jessy TS.170
T:Jessie, The Flower of Dunblane,aka TS.170
M:6/8
L:1/8
Q:1/2=35
S:Thomas Sands’ MS,1810,Lincolnshire
R:air
N:Poem by Tannahill set to music c.1820
C:R.A.Smith
O:England;Lincolnshire
Z:vmp.Ruairidh Greig, 2011
K:C
(c/d/)|e> f e d g> e|c> B c d B (c/A/)|G> A F E> G c|c> d e (f<d) (c/d/)|
e> f e d g> e|c> B c d B (c/A/)|G> A F E< G (c/e/)|d A “tr”B c2 e|
e c> d e< a e|e c> d e< c e|d B> c d< g e|d> B A HG2 G|
c> e d> e c> d|e> f g f d e |f> g a f< e c|d> A “tr”B Hc2 c/ {BdcBc} A/|
G> A F E< G (c/d/)|e> f g f< d e|f> g Ha g< e c|d> A B c2|]

